X: 393
T: Pirinska Igra
O: Macedonia
M: 7/8
Q: 1/4=96
K: Cm
P:A
%%MIDI drum d2dd2d2 60 61 60 61
%%MIDI drumon
G,3 C2D2  |E2D C4  |D2F E2D2  |D2C C4|\
G,3 C2D2  |E2D C4  |D2E F2A2  |G7    |
G2G G2G2  |A2G F4  |F2F E2F2  |A2G G4|\
C2D E2F2  |G2F EFDE|C7-       |C7    |
P:B
B,2B, B2B2|A2B GFE2|B,2B, B2A2|G7    |\
F2c BAGF  |E2F G4  |F2E EDDC  |C7    |



